;FLAVOR:Marlin
;TIME:21515
;Filament used: 12.4483m
;Layer height: 0.2
;MINX:92.2
;MINY:81.2
;MINZ:0.2
;MAXX:142.232
;MAXY:153.8
;MAXZ:118.4
;Generated with Cura_SteamEngine 4.11.0
M140 S60
M105
M190 S60
M104 S210
M105
M109 S210
M82 ;absolute extrusion mode
; Ender 3 Custom Start G-code
G92 E0 ; Reset Extruder
G28 ; Home all axes
G1 Z2.0 F3000 ; Move Z Axis up little to prevent scratching of Heat Bed
G1 X0.1 Y20 Z0.3 F5000.0 ; Move to start position
G1 X0.1 Y200.0 Z0.3 F1500.0 E15 ; Draw the first line
G1 X0.4 Y200.0 Z0.3 F5000.0 ; Move to side a little
G1 X0.4 Y20 Z0.3 F1500.0 E30 ; Draw the second line
G92 E0 ; Reset Extruder
G1 Z2.0 F3000 ; Move Z Axis up little to prevent scratching of Heat Bed
G1 X5 Y20 Z0.3 F5000.0 ; Move over to prevent blob squish
G92 E0
G92 E0
G1 F2700 E-5
;LAYER_COUNT:593
;LAYER:0
M107
G0 F6000 X94.08 Y84.039 Z0.2
;TYPE:SKIRT
G1 F2700 E0
G1 F1200 X94.485 Y83.602 E0.01982
G1 X94.602 Y83.485 E0.02532
G1 X95.188 Y82.955 E0.0516
G1 X95.824 Y82.488 E0.07784
G1 X96.504 Y82.087 E0.1041
G1 X97.222 Y81.757 E0.13038
G1 X97.969 Y81.502 E0.15664
G1 X98.738 Y81.323 E0.1829
G1 X99.522 Y81.223 E0.20918
G1 X100.117 Y81.2 E0.22899
G1 X134.016 Y81.201 E1.35647
G1 X134.805 Y81.241 E1.38275
G1 X135.306 Y81.308 E1.39956
G1 X135.622 Y81.361 E1.41022
G1 X136.393 Y81.531 E1.43648
G1 X137.143 Y81.778 E1.46274
G1 X137.865 Y82.1 E1.48903
G1 X138.55 Y82.493 E1.5153
G1 X139.192 Y82.953 E1.54157
G1 X139.784 Y83.475 E1.56782
G1 X140.258 Y83.982 E1.59091
G1 X140.353 Y84.093 E1.59576
G1 X140.835 Y84.718 E1.62202
G1 X141.252 Y85.389 E1.64829
G1 X141.599 Y86.099 E1.67458
G1 X141.872 Y86.839 E1.70081
G1 X142.069 Y87.604 E1.72708
G1 X142.188 Y88.385 E1.75336
G1 X142.227 Y89.15 E1.77884
G1 X142.231 Y91.219 E1.84765
G1 X142.219 Y94.213 E1.94723
G1 X142.218 Y140.819 E3.49736
G1 X142.232 Y143.829 E3.59747
G1 X142.227 Y145.855 E3.66486
G1 X142.185 Y146.644 E3.69113
G1 X142.064 Y147.424 E3.71739
G1 X141.864 Y148.188 E3.74365
G1 X141.588 Y148.928 E3.76992
G1 X141.239 Y149.636 E3.79618
G1 X140.819 Y150.305 E3.82245
G1 X140.297 Y150.972 E3.85062
G1 X140.199 Y151.084 E3.85557
G1 X139.65 Y151.652 E3.88184
G1 X139.046 Y152.16 E3.90809
G1 X138.393 Y152.605 E3.93438
G1 X137.699 Y152.982 E3.96065
G1 X136.971 Y153.287 E3.9869
G1 X136.215 Y153.516 E4.01317
G1 X135.429 Y153.67 E4.03981
G1 X135.064 Y153.722 E4.05207
G1 X133.964 Y153.8 E4.08875
G1 X100.117 Y153.8 E5.21451
G1 X99.328 Y153.76 E5.24078
G1 X98.548 Y153.641 E5.26703
G1 X97.783 Y153.443 E5.29331
G1 X97.043 Y153.169 E5.31955
G1 X96.334 Y152.821 E5.34582
G1 X95.663 Y152.403 E5.37212
G1 X95.039 Y151.92 E5.39836
G1 X94.602 Y151.515 E5.41818
G1 X94.485 Y151.398 E5.42368
G1 X93.955 Y150.812 E5.44996
G1 X93.488 Y150.176 E5.4762
G1 X93.087 Y149.496 E5.50246
G1 X92.757 Y148.778 E5.52874
G1 X92.502 Y148.031 E5.555
G1 X92.323 Y147.262 E5.58126
G1 X92.223 Y146.478 E5.60754
G1 X92.2 Y145.883 E5.62735
G1 X92.2 Y89.117 E7.51539
G1 X92.24 Y88.328 E7.54167
G1 X92.359 Y87.548 E7.56791
G1 X92.557 Y86.783 E7.5942
G1 X92.831 Y86.043 E7.62044
G1 X93.179 Y85.334 E7.64671
G1 X93.597 Y84.663 E7.673
G1 X94.08 Y84.039 E7.69925
G0 F6000 X94.475 Y84.194
G1 F1200 X94.767 Y83.884 E7.71341
G1 X94.884 Y83.767 E7.71892
G1 X95.456 Y83.253 E7.74449
G1 X96.078 Y82.8 E7.77009
G1 X96.743 Y82.414 E7.79566
G1 X97.445 Y82.099 E7.82125
G1 X98.176 Y81.859 E7.84684
G1 X98.927 Y81.696 E7.8724
G1 X99.692 Y81.612 E7.898
G1 X100.117 Y81.6 E7.91214
G1 X134.016 Y81.601 E9.03963
G1 X134.784 Y81.641 E9.0652
G1 X135.24 Y81.703 E9.08051
G1 X135.556 Y81.756 E9.09117
G1 X136.307 Y81.922 E9.11675
G1 X137.037 Y82.166 E9.14235
G1 X137.737 Y82.484 E9.16792
G1 X138.401 Y82.873 E9.19352
G1 X139.02 Y83.328 E9.21907
G1 X139.589 Y83.846 E9.24466
G1 X139.954 Y84.242 E9.26257
G1 X140.049 Y84.353 E9.26743
G1 X140.518 Y84.963 E9.29302
G1 X140.921 Y85.618 E9.3186
G1 X141.255 Y86.311 E9.34419
G1 X141.514 Y87.035 E9.36976
G1 X141.697 Y87.782 E9.39534
G1 X141.801 Y88.544 E9.42092
G1 X141.827 Y89.15 E9.4411
G1 X141.831 Y91.218 E9.50988
G1 X141.819 Y94.212 E9.60946
G1 X141.818 Y140.819 E11.15962
G1 X141.832 Y143.828 E11.2597
G1 X141.827 Y145.854 E11.32708
G1 X141.785 Y146.622 E11.35267
G1 X141.664 Y147.382 E11.37826
G1 X141.464 Y148.125 E11.40385
G1 X141.189 Y148.843 E11.42943
G1 X140.84 Y149.528 E11.455
G1 X140.422 Y150.174 E11.48059
G1 X139.996 Y150.709 E11.50333
G1 X139.898 Y150.821 E11.50828
G1 X139.362 Y151.373 E11.53387
G1 X138.772 Y151.866 E11.55945
G1 X138.134 Y152.295 E11.58502
G1 X137.454 Y152.656 E11.61062
G1 X136.741 Y152.944 E11.6362
G1 X136.002 Y153.156 E11.66177
G1 X135.373 Y153.274 E11.68306
G1 X135.008 Y153.326 E11.69532
G1 X133.964 Y153.4 E11.73013
G1 X100.117 Y153.4 E12.85589
G1 X99.349 Y153.36 E12.88146
G1 X98.589 Y153.241 E12.90705
G1 X97.846 Y153.043 E12.93262
G1 X97.127 Y152.769 E12.95822
G1 X96.441 Y152.422 E12.98378
G1 X95.794 Y152.006 E13.00937
G1 X95.194 Y151.525 E13.03495
G1 X94.884 Y151.233 E13.04911
G1 X94.767 Y151.116 E13.05461
G1 X94.253 Y150.544 E13.08019
G1 X93.8 Y149.922 E13.10578
G1 X93.414 Y149.257 E13.13136
G1 X93.099 Y148.555 E13.15695
G1 X92.859 Y147.824 E13.18254
G1 X92.696 Y147.073 E13.2081
G1 X92.612 Y146.308 E13.2337
G1 X92.6 Y145.883 E13.24784
G1 X92.6 Y89.117 E15.13588
G1 X92.64 Y88.349 E15.16146
G1 X92.759 Y87.589 E15.18705
G1 X92.957 Y86.846 E15.21262
G1 X93.231 Y86.127 E15.23821
G1 X93.578 Y85.441 E15.26378
G1 X93.994 Y84.794 E15.28937
G1 X94.475 Y84.194 E15.31494
G0 F6000 X94.392 Y84.928
G1 F1200 X95.05 Y84.167 E15.3484
G1 X95.167 Y84.05 E15.35391
G1 X95.724 Y83.55 E15.3788
G1 X96.33 Y83.113 E15.40365
G1 X96.98 Y82.742 E15.42854
G1 X97.666 Y82.443 E15.45343
G1 X98.38 Y82.219 E15.47832
G1 X99.113 Y82.072 E15.50319
G1 X100.117 Y82 E15.53667
G1 X134.016 Y82.001 E16.66415
G1 X134.763 Y82.041 E16.68903
G1 X135.174 Y82.097 E16.70283
G1 X135.49 Y82.15 E16.71349
G1 X136.22 Y82.313 E16.73836
G1 X136.929 Y82.553 E16.76326
G1 X137.607 Y82.868 E16.78812
G1 X138.249 Y83.252 E16.81301
G1 X138.846 Y83.704 E16.83791
G1 X139.391 Y84.216 E16.86278
G1 X139.65 Y84.502 E16.87562
G1 X139.745 Y84.613 E16.88048
G1 X140.201 Y85.207 E16.90538
G1 X140.59 Y85.846 E16.93026
G1 X140.909 Y86.522 E16.95513
G1 X141.154 Y87.229 E16.98001
G1 X141.322 Y87.958 E17.00489
G1 X141.412 Y88.701 E17.02979
G1 X141.427 Y89.151 E17.04476
G1 X141.431 Y91.216 E17.11344
G1 X141.419 Y94.21 E17.21303
G1 X141.418 Y140.819 E18.76325
G1 X141.432 Y143.827 E18.8633
G1 X141.427 Y145.853 E18.93068
G1 X141.385 Y146.6 E18.95557
G1 X141.264 Y147.338 E18.98044
G1 X141.065 Y148.059 E19.00532
G1 X140.789 Y148.755 E19.03022
G1 X140.442 Y149.417 E19.05508
G1 X140.025 Y150.039 E19.07999
G1 X139.695 Y150.446 E19.09741
G1 X139.597 Y150.558 E19.10236
G1 X139.075 Y151.093 E19.12722
G1 X138.499 Y151.57 E19.1521
G1 X137.875 Y151.983 E19.17699
G1 X137.211 Y152.327 E19.20186
G1 X136.514 Y152.598 E19.22673
G1 X135.791 Y152.794 E19.25165
G1 X135.316 Y152.878 E19.26769
G1 X134.951 Y152.93 E19.27995
G1 X133.964 Y153 E19.31286
G1 X100.117 Y153 E20.43862
G1 X99.37 Y152.96 E20.4635
G1 X98.632 Y152.841 E20.48836
G1 X97.91 Y152.643 E20.51326
G1 X97.214 Y152.37 E20.53813
G1 X96.551 Y152.023 E20.56302
G1 X95.928 Y151.608 E20.58792
G1 X95.167 Y150.95 E20.62138
G1 X95.05 Y150.833 E20.62688
G1 X94.55 Y150.276 E20.65178
G1 X94.113 Y149.67 E20.67662
G1 X93.742 Y149.02 E20.70152
G1 X93.443 Y148.334 E20.72641
G1 X93.219 Y147.62 E20.7513
G1 X93.072 Y146.887 E20.77616
G1 X93 Y145.883 E20.80964
G1 X93 Y89.117 E22.69768
G1 X93.04 Y88.37 E22.72257
G1 X93.159 Y87.632 E22.74743
G1 X93.357 Y86.91 E22.77233
G1 X93.63 Y86.214 E22.7972
G1 X93.977 Y85.551 E22.82208
G1 X94.392 Y84.928 E22.84698
G0 F6000 X94.789 Y85.067
G1 F1200 X95.333 Y84.45 E22.87434
G1 X95.45 Y84.333 E22.87984
G1 X95.991 Y83.849 E22.90399
G1 X96.582 Y83.426 E22.92816
G1 X97.216 Y83.072 E22.95231
G1 X97.885 Y82.789 E22.97647
G1 X98.581 Y82.581 E23.00063
G1 X99.296 Y82.451 E23.0248
G1 X100.117 Y82.4 E23.05216
G1 X134.016 Y82.401 E24.17965
G1 X134.741 Y82.441 E24.2038
G1 X135.108 Y82.492 E24.21612
G1 X135.424 Y82.545 E24.22678
G1 X136.132 Y82.704 E24.25091
G1 X136.819 Y82.941 E24.27509
G1 X137.476 Y83.251 E24.29925
G1 X138.095 Y83.632 E24.32342
G1 X138.668 Y84.078 E24.34757
G1 X139.346 Y84.762 E24.37961
G1 X139.441 Y84.873 E24.38447
G1 X139.882 Y85.45 E24.40862
G1 X140.258 Y86.072 E24.43279
G1 X140.562 Y86.732 E24.45696
G1 X140.792 Y87.421 E24.48112
G1 X140.945 Y88.131 E24.50528
G1 X141.027 Y89.152 E24.53935
G1 X141.031 Y91.214 E24.60793
G1 X141.019 Y94.208 E24.70751
G1 X141.018 Y140.819 E26.2578
G1 X141.032 Y143.826 E26.35781
G1 X141.027 Y145.852 E26.4252
G1 X140.985 Y146.577 E26.44935
G1 X140.864 Y147.294 E26.47354
G1 X140.665 Y147.992 E26.49768
G1 X140.39 Y148.665 E26.52186
G1 X140.043 Y149.303 E26.54601
G1 X139.628 Y149.899 E26.57017
G1 X139.394 Y150.182 E26.58238
G1 X139.296 Y150.294 E26.58733
G1 X138.788 Y150.814 E26.61151
G1 X138.227 Y151.274 E26.63564
G1 X137.618 Y151.67 E26.6598
G1 X136.969 Y151.997 E26.68397
G1 X136.288 Y152.25 E26.70814
G1 X135.26 Y152.482 E26.74319
G1 X134.895 Y152.534 E26.75545
G1 X133.964 Y152.6 E26.78649
G1 X100.117 Y152.6 E27.91225
G1 X99.392 Y152.56 E27.9364
G1 X98.675 Y152.441 E27.96057
G1 X97.976 Y152.243 E27.98474
G1 X97.303 Y151.97 E28.00889
G1 X96.664 Y151.625 E28.03304
G1 X96.067 Y151.211 E28.05721
G1 X95.45 Y150.667 E28.08457
G1 X95.333 Y150.55 E28.09007
G1 X94.849 Y150.009 E28.11421
G1 X94.426 Y149.418 E28.13839
G1 X94.072 Y148.784 E28.16254
G1 X93.789 Y148.115 E28.1867
G1 X93.581 Y147.419 E28.21086
G1 X93.451 Y146.704 E28.23503
G1 X93.4 Y145.883 E28.26239
G1 X93.4 Y89.117 E30.15043
G1 X93.44 Y88.392 E30.17458
G1 X93.559 Y87.675 E30.19876
G1 X93.757 Y86.976 E30.22292
G1 X94.03 Y86.303 E30.24708
G1 X94.375 Y85.664 E30.27123
G1 X94.789 Y85.067 E30.29539
G0 F6000 X95.185 Y85.211
G1 F1200 X95.616 Y84.733 E30.3168
G1 X95.733 Y84.616 E30.3223
G1 X96.258 Y84.147 E30.34572
G1 X96.833 Y83.741 E30.36913
G1 X97.451 Y83.403 E30.39256
G1 X98.102 Y83.136 E30.41596
G1 X98.78 Y82.946 E30.43938
G1 X99.475 Y82.833 E30.4628
G1 X100.117 Y82.8 E30.48418
G1 X134.016 Y82.801 E31.61166
G1 X135.042 Y82.886 E31.64591
G1 X135.358 Y82.939 E31.65656
G1 X136.044 Y83.095 E31.67996
G1 X136.709 Y83.328 E31.7034
G1 X137.342 Y83.634 E31.72678
G1 X137.937 Y84.01 E31.75019
G1 X138.486 Y84.451 E31.77362
G1 X139.042 Y85.023 E31.80015
G1 X139.137 Y85.134 E31.80501
G1 X139.564 Y85.694 E31.82843
G1 X139.924 Y86.298 E31.85182
G1 X140.214 Y86.94 E31.87525
G1 X140.429 Y87.61 E31.89865
G1 X140.566 Y88.301 E31.92208
G1 X140.627 Y89.153 E31.95049
G1 X140.631 Y91.213 E32.01901
G1 X140.619 Y94.207 E32.11859
G1 X140.618 Y140.819 E33.66891
G1 X140.632 Y143.825 E33.76889
G1 X140.627 Y145.851 E33.83627
G1 X140.585 Y146.554 E33.8597
G1 X140.464 Y147.248 E33.88313
G1 X140.265 Y147.923 E33.90654
G1 X139.991 Y148.571 E33.92994
G1 X139.645 Y149.184 E33.95335
G1 X139.093 Y149.919 E33.98392
G1 X138.995 Y150.031 E33.98887
G1 X138.502 Y150.533 E34.01227
G1 X137.955 Y150.977 E34.0357
G1 X137.362 Y151.356 E34.05911
G1 X136.729 Y151.665 E34.08254
G1 X136.066 Y151.9 E34.10594
G1 X135.203 Y152.086 E34.1353
G1 X134.838 Y152.138 E34.14756
G1 X133.964 Y152.2 E34.1767
G1 X100.117 Y152.2 E35.30246
G1 X99.414 Y152.16 E35.32588
G1 X98.72 Y152.041 E35.3493
G1 X98.045 Y151.843 E35.37269
G1 X97.396 Y151.571 E35.3961
G1 X96.782 Y151.226 E35.41952
G1 X96.211 Y150.815 E35.44292
G1 X95.733 Y150.384 E35.46433
G1 X95.616 Y150.267 E35.46983
G1 X95.147 Y149.742 E35.49325
G1 X94.741 Y149.167 E35.51666
G1 X94.403 Y148.549 E35.54009
G1 X94.136 Y147.898 E35.56349
G1 X93.946 Y147.22 E35.58691
G1 X93.833 Y146.525 E35.61033
G1 X93.8 Y145.883 E35.63171
G1 X93.8 Y89.117 E37.51976
G1 X93.84 Y88.414 E37.54317
G1 X93.959 Y87.72 E37.56659
G1 X94.157 Y87.045 E37.58999
G1 X94.429 Y86.396 E37.6134
G1 X94.774 Y85.782 E37.63682
G1 X95.185 Y85.211 E37.66022
G0 F6000 X95.582 Y85.359
G1 F1200 X95.899 Y85.016 E37.67575
G1 X96.016 Y84.899 E37.68126
G1 X96.525 Y84.446 E37.70392
G1 X97.083 Y84.057 E37.72654
G1 X97.683 Y83.735 E37.74919
G1 X98.317 Y83.486 E37.77185
G1 X98.976 Y83.313 E37.79451
G1 X99.65 Y83.219 E37.81714
G1 X100.117 Y83.2 E37.83269
G1 X134.016 Y83.201 E38.96017
G1 X134.975 Y83.281 E38.99218
G1 X135.291 Y83.334 E39.00284
G1 X135.955 Y83.486 E39.02549
G1 X136.596 Y83.714 E39.04812
G1 X137.207 Y84.016 E39.07079
G1 X137.777 Y84.388 E39.09343
G1 X138.3 Y84.824 E39.11608
G1 X138.738 Y85.283 E39.13718
G1 X138.833 Y85.394 E39.14204
G1 X139.245 Y85.936 E39.16468
G1 X139.59 Y86.523 E39.18733
G1 X139.864 Y87.146 E39.20996
G1 X140.063 Y87.797 E39.23261
G1 X140.185 Y88.467 E39.25526
G1 X140.227 Y89.154 E39.27815
G1 X140.231 Y91.211 E39.34657
G1 X140.219 Y94.205 E39.44615
G1 X140.218 Y140.819 E40.99653
G1 X140.232 Y143.824 E41.09648
G1 X140.227 Y145.85 E41.16387
G1 X140.185 Y146.53 E41.18653
G1 X140.064 Y147.2 E41.20917
G1 X139.866 Y147.851 E41.2318
G1 X139.592 Y148.475 E41.25447
G1 X139.247 Y149.062 E41.27712
G1 X138.792 Y149.655 E41.30198
G1 X138.694 Y149.767 E41.30693
G1 X138.216 Y150.253 E41.3296
G1 X137.685 Y150.678 E41.35222
G1 X137.108 Y151.039 E41.37486
G1 X136.492 Y151.33 E41.39752
G1 X135.846 Y151.546 E41.42017
G1 X135.147 Y151.69 E41.44391
G1 X134.782 Y151.742 E41.45617
G1 X133.964 Y151.8 E41.48345
G1 X100.117 Y151.8 E42.6092
G1 X99.437 Y151.76 E42.63186
G1 X98.767 Y151.641 E42.65449
G1 X98.115 Y151.444 E42.67715
G1 X97.491 Y151.172 E42.69979
G1 X96.903 Y150.828 E42.72245
G1 X96.359 Y150.418 E42.7451
G1 X96.016 Y150.101 E42.76064
G1 X95.899 Y149.984 E42.76614
G1 X95.446 Y149.475 E42.7888
G1 X95.057 Y148.917 E42.81143
G1 X94.735 Y148.317 E42.83407
G1 X94.486 Y147.683 E42.85673
G1 X94.313 Y147.024 E42.87939
G1 X94.219 Y146.35 E42.90203
G1 X94.2 Y145.883 E42.91757
G1 X94.2 Y89.117 E44.80562
G1 X94.24 Y88.437 E44.82827
G1 X94.359 Y87.767 E44.8509
G1 X94.556 Y87.115 E44.87356
G1 X94.828 Y86.491 E44.8962
G1 X95.172 Y85.903 E44.91886
G1 X95.582 Y85.359 E44.94151
G0 F6000 X96.182 Y85.299
G1 F1200 X96.299 Y85.182 E44.94702
G1 X96.791 Y84.746 E44.96888
G1 X97.332 Y84.374 E44.99072
G1 X97.914 Y84.07 E45.01256
G1 X98.529 Y83.839 E45.03441
G1 X99.168 Y83.684 E45.05628
G1 X100.117 Y83.6 E45.08796
G1 X134.016 Y83.601 E46.21545
G1 X134.909 Y83.675 E46.24525
G1 X135.225 Y83.728 E46.25591
G1 X135.865 Y83.876 E46.27776
G1 X136.483 Y84.101 E46.29963
G1 X137.068 Y84.399 E46.32147
G1 X137.613 Y84.765 E46.3433
G1 X138.11 Y85.196 E46.36518
G1 X138.435 Y85.543 E46.381
G1 X138.53 Y85.654 E46.38586
G1 X138.926 Y86.178 E46.4077
G1 X139.255 Y86.746 E46.42953
G1 X139.513 Y87.351 E46.45141
G1 X139.696 Y87.982 E46.47326
G1 X139.8 Y88.63 E46.49509
G1 X139.827 Y89.154 E46.51254
G1 X139.831 Y91.21 E46.58092
G1 X139.819 Y94.204 E46.68051
G1 X139.818 Y140.819 E48.23093
G1 X139.832 Y143.823 E48.33084
G1 X139.827 Y145.849 E48.39823
G1 X139.785 Y146.505 E48.42009
G1 X139.665 Y147.151 E48.44194
G1 X139.466 Y147.777 E48.46379
G1 X139.193 Y148.375 E48.48566
G1 X138.85 Y148.935 E48.5075
G1 X138.491 Y149.392 E48.52683
G1 X138.393 Y149.504 E48.53178
G1 X137.931 Y149.971 E48.55363
G1 X137.416 Y150.379 E48.57548
G1 X136.855 Y150.721 E48.59733
G1 X136.257 Y150.992 E48.61917
G1 X135.63 Y151.189 E48.64103
G1 X135.091 Y151.294 E48.65929
G1 X134.726 Y151.346 E48.67155
G1 X133.964 Y151.4 E48.69696
G1 X100.117 Y151.4 E49.82272
G1 X99.461 Y151.36 E49.84458
G1 X98.815 Y151.241 E49.86642
G1 X98.188 Y151.044 E49.88828
G1 X97.59 Y150.772 E49.91013
G1 X97.029 Y150.43 E49.93199
G1 X96.299 Y149.818 E49.96367
G1 X96.182 Y149.701 E49.96917
G1 X95.746 Y149.209 E49.99104
G1 X95.374 Y148.668 E50.01288
G1 X95.07 Y148.086 E50.03471
G1 X94.839 Y147.471 E50.05656
G1 X94.684 Y146.832 E50.07843
G1 X94.6 Y145.883 E50.11012
G1 X94.6 Y89.117 E51.99817
G1 X94.64 Y88.461 E52.02003
G1 X94.759 Y87.815 E52.04187
G1 X94.956 Y87.188 E52.06373
G1 X95.228 Y86.59 E52.08558
G1 X95.57 Y86.029 E52.10744
G1 X96.182 Y85.299 E52.13912
G0 F6000 X96.464 Y85.581
G1 F1200 X96.581 Y85.464 E52.14462
G1 X97.056 Y85.047 E52.16565
G1 X97.579 Y84.692 E52.18667
G1 X98.143 Y84.406 E52.2077
G1 X98.738 Y84.194 E52.22871
G1 X99.356 Y84.058 E52.24976
G1 X100.117 Y84 E52.27514
G1 X134.016 Y84.001 E53.40263
G1 X134.843 Y84.07 E53.43023
G1 X135.159 Y84.123 E53.44089
